X:1
T:A Major Oliver Holden, 1803
T:William Robertson, 1751
T:Shiloh No copyright. Transcribed from The Charlestown Collection, 1803.
%%score [ 1 2 3 ]
L:1/8
M:4/4
K:A
V:1 treble nm="Treble" snm="Tr."
V:2 treble-8 nm="Tenor" snm="T."
V:3 bass nm="Bass" snm="B."
V:1
 A4 E2 E2 | A2 A2 G2 B2 | c4 B4 | A2 F2 A2 B2 | !fermata!c4 A4 | c2 c2 A2 c2 | A4 c4 | c4 c4 | %8
 d6 f2 | e2 e2 c4- | c2 a2 a2 f2 | e4 d4 | c8 |] %13
V:2
 c4 A2 A2 | F2 F2 E2 G2 | A4 B4 | c2 A2 c2 B2 | !fermata!A4 e4 | f2 A2 F2 A2 | c4 A4 | F4 A4 | %8
w: 1.~Fair as a|bloo- ming, ten- der|flower A-|midst the de- sert|blows; So,|sligh- ted and des-|pised of|men, The|
 (Bcde f2) d2 | B2 B2 (ABcd | e2) c2 f2 d2 | c4 B4 | A8 |] %13
w: heav'n~- * * * * ly|Sav- ior rose, * * *|* The heav'n- ly|Sav- ior|rose.|
V:3
 A,,4 C,2 C,2 | D,2 D,2 E,2 E,2 | A,,4 E,4 | C,2 D,2 E,2 E,2 | !fermata!A,,4 A,,4 | %5
 A,,2 C,2 D,2 C,2 | F,4 F,4 | F,4 C,4 | D,6 D,2 | E,2 E,2 A,4- | A,2 G,,2 D,2 D,2 | E,4 E,4 | %12
 A,,8 |] %13

